!!!COM: Palestrina, Giovanni Perluigi da
!!!OPR: Missa L'homme arme (1570)
!!!OTL: Gloria
**kern	**kern	**kern	**kern	**kern
*Ibass	*Itenor	*Itenor	*Icalto	*Icant
!Bassus	!Tenor 2	!Tenor 1	!Altus	!Cantus
*clefF4	*clefGv2	*clefGv2	*clefG2	*clefG2
*k[]	*k[]	*k[]	*k[]	*k[]
*G:mix	*G:mix	*G:mix	*G:mix	*G:mix
*M4/2	*M4/2	*M4/2	*M4/2	*M4/2
=1	=1	=1	=1	=1
0r	1G	0r	0r	0r
.	1G	.	.	.
=2	=2	=2	=2	=2
0r	1.c	0r	0r	1g
.	.	.	.	1g
.	2B	.	.	.
=3	=3	=3	=3	=3
0r	4A	0r	0r	1.cc
.	4B	.	.	.
.	4c	.	.	.
.	4d	.	.	.
.	4e	.	.	.
.	4f	.	.	.
.	[2g	.	.	2b
=4	=4	=4	=4	=4
0r	2g]	0r	1d	0a
.	4f	.	.	.
.	4e	.	.	.
.	1f	.	1d	.
=5	=5	=5	=5	=5
0r	2.e	0r	1.g	2.g
.	4f	.	.	4a
.	2g	.	.	4b
.	.	.	.	4cc
.	2a	.	2f	[2dd
=6	=6	=6	=6	=6
1G	1.g	0r	1e	2dd]
.	.	.	.	1cc
1G	.	.	1d	.
.	2g	.	.	2b
=7	=7	=7	=7	=7
1.c	2.g	0r	2.e	1cc
.	4f	.	4d	.
.	2e	.	4e	1g
.	.	.	4f	.
2B	2d	.	[2g	.
=8	=8	=8	=8	=8
1A	2.c	0r	2g]	1.cc
.	.	.	2f#	.
.	4d	.	.	.
1G	2e	.	1g	.
.	[2d	.	.	2b
=9	=9	=9	=9	=9
2F#	4d]	0r	1d	2a
.	4c	.	.	.
2G	2B	.	.	1g
1D	1A	.	2r	.
.	.	.	[2d	2f#
=10	=10	=10	=10	=10
0G	2r	0r	2d]	[0g
.	1d	.	2.B	.
.	.	.	4c	.
.	2B	.	2d	.
=11	=11	=11	=11	=11
2r	2c	0r	2e	0g]
1G	2d	.	1d	.
.	1e	.	.	.
2E	.	.	[2c	.
=12	=12	=12	=12	=12
2F	2d	0r	2c]	0r
2G	2.e	.	2B	.
1A	.	.	4c	.
.	4d	.	4d	.
.	[2c	.	4e	.
.	.	.	4f	.
=13	=13	=13	=13	=13
1G	2c]	[0G	[0g	2r
.	4B	.	.	1dd
.	4A	.	.	.
2r	2B	.	.	.
2G	2d	.	.	2b
=14	=14	=14	=14	=14
2C	2e	0G]	0g]	2cc
2BB	2d	.	.	2dd
2C	1c	.	.	1ee
2C	.	.	.	.
=15	=15	=15	=15	=15
1G	0B	[0G	2r	1dd
.	.	.	2d	.
1r	.	.	2d	2r
.	.	.	2G	2dd
=16	=16	=16	=16	=16
1r	2r	0G]	2.B	2dd
.	2d	.	.	2g
.	.	.	4c	.
2r	2d	.	1d	2.b
2G	2G	.	.	.
.	.	.	.	4cc
=17	=17	=17	=17	=17
2G	2B	0G	0r	2dd
2C	2.c	.	.	2.ee
2.E	.	.	.	.
.	4B	.	.	4dd
.	2e	.	.	2cc
4F	.	.	.	.
=18	=18	=18	=18	=18
1G	2.d	0G	2r	1b
.	.	.	1d	.
.	4c	.	.	.
1r	1B	.	.	2r
.	.	.	2G	[2dd
=19	=19	=19	=19	=19
0r	2r	[0G	2.B	2dd]
.	1d	.	.	2g
.	.	.	4c	.
.	.	.	2d	2.b
.	2G	.	2e	.
.	.	.	.	4cc
=20	=20	=20	=20	=20
0r	2.B	0G]	2d	2dd
.	.	.	1g	2ee
.	4c	.	.	.
.	2d	.	.	2dd
.	2e	.	2g	[2cc
=21	=21	=21	=21	=21
0r	0d	0G	1g	2cc]
.	.	.	.	4b
.	.	.	.	4a
.	.	.	2g	1b
.	.	.	2g	.
=22	=22	=22	=22	=22
2r	2c	[0c	2e	1cc
1F	1f	.	1a	.
.	.	.	.	2r
2F	2f	.	2a	[2a
=23	=23	=23	=23	=23
2.A	1e	0c]	2.cc	2a]
.	.	.	.	2a
4G	.	.	4b	.
2F	2f	.	2a	2.cc
2E	2g	.	2g	.
.	.	.	.	4b
=24	=24	=24	=24	=24
0F	2.a	0c	2.f	2a
.	.	.	.	2f
.	4g	.	4g	.
.	1f	.	4a	[1ff
.	.	.	4g	.
.	.	.	4a	.
.	.	.	4b	.
=25	=25	=25	=25	=25
[0C	0g	0c	1.cc	2ff]
.	.	.	.	4ee
.	.	.	.	4dd
.	.	.	.	2ee
.	.	.	4b	2ee
.	.	.	4a	.
=26	=26	=26	=26	=26
0C]	2r	0c	1g	2ee
.	2e	.	.	2ee
.	2e	.	2r	2.gg
.	2e	.	2e	.
.	.	.	.	4ff
=27	=27	=27	=27	=27
1r	2.g	0c	2e	4ee
.	.	.	.	4dd
.	.	.	2e	2ee
.	4f	.	.	.
2r	4e	.	2g	2.cc
.	4d	.	.	.
2A	[2e	.	2a	.
.	.	.	.	4b
=28	=28	=28	=28	=28
2A	4e]	0c	2e	4a
.	4c	.	.	4g
2A	1f	.	2.cc	2a
2.c	.	.	.	2g
.	.	.	8b	.
.	.	.	8a	.
.	4e	.	2g	2cc
4B	4d	.	.	.
=29	=29	=29	=29	=29
4A	2e	0c	1a	2.cc
4G	.	.	.	.
1F	4A	.	.	.
.	4B	.	.	4b
.	4c	.	2f	2a
.	4d	.	.	.
2E	[2e	.	[2g	2g
=30	=30	=30	=30	=30
0A	4e]	0c	2g]	1a
.	4d	.	.	.
.	4c	.	4f	.
.	4B	.	4e	.
.	1c	.	2f#	1a
.	.	.	2f#	.
=31	=31	=31	=31	=31
0G	1d	0B	0g	1b
.	[1G	.	.	[1dd
=32	=32	=32	=32	=32
1r	1G]	0B	2r	2dd]
.	.	.	1g	2dd
[1G	2r	.	.	1dd
.	[2d	.	2g	.
=33	=33	=33	=33	=33
2G]	2d]	1B	1g	2r
2G	2d	.	.	2dd
1G	1g	1B	1d	2dd
.	.	.	.	2dd
=34	=34	=34	=34	=34
1D	2.f	0A	2d	2.ff
.	.	.	2d	.
.	4g	.	.	4ee
2D	[1a	.	2.f	4dd
.	.	.	.	4cc
2D	.	.	.	2dd
.	.	.	4e	.
=35	=35	=35	=35	=35
2.F	2a]	0A	2d	1a
.	1f	.	2c	.
4E	.	.	.	.
2D	.	.	2d	2r
2C#	2e	.	2e	2a
=36	=36	=36	=36	=36
0D	2.d	0A	2.f	2a
.	.	.	.	2a
.	4e	.	4g	.
.	1f	.	1a	1dd
=37	=37	=37	=37	=37
2AA	1e	1A	2r	1cc#
2AA	.	.	2e	.
2D	1r	1A	2f	2r
2C	.	.	2e	2ee
=38	=38	=38	=38	=38
0AA	2r	1A	1.a	2ff
.	2e	.	.	2ee
.	2f	1A	.	1cc
.	2e	.	4g	.
.	.	.	4f	.
=39	=39	=39	=39	=39
0r	1c	1A	0e	1.ee
.	[1e	1A	.	.
.	.	.	.	4dd
.	.	.	.	4cc
=40	=40	=40	=40	=40
1r	2e]	0G	1.g	2.b
.	4d	.	.	.
.	4c	.	.	4cc
2r	2B	.	.	2dd
[2C	2c	.	2g	2ee
=41	=41	=41	=41	=41
2C]	2e	0G	0g	2cc
2BB	2.d	.	.	2dd
1C	.	.	.	1ee
.	4c	.	.	.
.	[2c	.	.	.
=42	=42	=42	=42	=42
1G	2c]	0G	1g	2dd
.	2B	.	.	2.gg
1C	[1c	.	2.e	.
.	.	.	.	4ff
.	.	.	.	4ee
.	.	.	4f	4dd
=43	=43	=43	=43	=43
2r	1c]	0r	0g	1ee
1c	.	.	.	.
.	2r	.	.	1dd
2B	[2g	.	.	.
=44	=44	=44	=44	=44
2G	2g]	0r	0r	0r
2A	2f	.	.	.
2B	2d	.	.	.
2c	2e	.	.	.
=45	=45	=45	=45	=45
2A	2f	0r	0r	0r
2.G	2g	.	.	.
.	2e	.	.	.
4A	.	.	.	.
4B	4d	.	.	.
4c	4e	.	.	.
=46	=46	=46	=46	=46
2.d	4f	0r	0r	0r
.	4g	.	.	.
.	2.a	.	.	.
4c	.	.	.	.
2B	.	.	.	.
.	4g	.	.	.
2c	[2g	.	.	.
=47	=47	=47	=47	=47
1A	2g]	0r	1r	2r
.	2f#	.	.	1cc
1G	1g	.	2r	.
.	.	.	[2g	2b
=48	=48	=48	=48	=48
0r	0r	0r	2g]	2g
.	.	.	2f	2a
.	.	.	2d	2b
.	.	.	2e	2cc
=49	=49	=49	=49	=49
0r	2r	0r	2f	2a
.	1g	.	2g	4g
.	.	.	.	4a
.	.	.	2e	4b
.	.	.	.	4cc
.	2f	.	4d	[2dd
.	.	.	4e	.
=50	=50	=50	=50	=50
0r	2d	0r	4f	2dd]
.	.	.	4g	.
.	1f	.	2.a	4cc
.	.	.	.	4b
.	.	.	.	[1cc
.	.	.	4f	.
.	2e	.	2g	.
=51	=51	=51	=51	=51
0r	2f	0r	2a	2cc]
.	2g	.	1g	2b
.	1d	.	.	1a
.	.	.	2f#	.
=52	=52	=52	=52	=52
1G	2r	0d	1g	1b
.	2B	.	.	.
2G	2B	.	1r	1r
2F#	2A	.	.	.
=53	=53	=53	=53	=53
1G	2.B	0d	2r	2r
.	.	.	2g	2dd
.	8A	.	.	.
.	8G	.	.	.
1D	1A	.	2g	2dd
.	.	.	2f#	2dd
=54	=54	=54	=54	=54
1r	1G	0d	1g	2.b
.	.	.	.	4cc
[1G	[1B	.	1g	4dd
.	.	.	.	4cc
.	.	.	.	4b
.	.	.	.	4a
=55	=55	=55	=55	=55
2G]	2B]	[0d	1r	2g
2F#	2A	.	.	2a
2G	2B	.	2r	2r
2G	2B	.	[2g	[2dd
=56	=56	=56	=56	=56
1D	1A	1d]	2g]	2dd]
.	.	.	2f#	2dd
1r	1d	[1G	2g	2b
.	.	.	2g	2b
=57	=57	=57	=57	=57
1.C	1.c	1G_	2e	2cc
.	.	.	1g	1ee
.	.	1G_	.	.
2BB	2d	.	2g	2dd
=58	=58	=58	=58	=58
0C	0e	1G]	1g	0cc
.	.	1r	1g	.
=59	=59	=59	=59	=59
0G	0d	0r	2r	1b
.	.	.	2g	.
.	.	.	2g	2r
.	.	.	2g	2g
=60	=60	=60	=60	=60
2r	0r	[0d	1b-	2g
2G	.	.	.	2g
2G	.	.	2g	1b-
2G	.	.	[2b-	.
=61	=61	=61	=61	=61
1B-	0r	1d]	4b-]	2f
.	.	.	8a	.
.	.	.	8g	.
.	.	.	2f	2.b-
2G	.	[1d	2g	.
.	.	.	.	8a
.	.	.	.	8g
[2B-	.	.	2d	2f
=62	=62	=62	=62	=62
4B-]	0r	0d]	2b-	2g
8A	.	.	.	.
8G	.	.	.	.
2F	.	.	2.a	2a
1G	.	.	.	2.b-
.	.	.	4g	.
.	.	.	[2g	.
.	.	.	.	8a
.	.	.	.	8g
=63	=63	=63	=63	=63
1D	1r	[0d	2g]	1a
.	.	.	2f	.
1G	2r	.	[1b-	1g
.	2G	.	.	.
=64	=64	=64	=64	=64
1r	2G	1d]	2b-]	2r
.	2G	.	4a	2dd
.	.	.	4g	.
2r	1B-	[1c	1f	2dd
2D	.	.	.	2dd
=65	=65	=65	=65	=65
2D	1A	0c]	2r	0ff
2D	.	.	2a	.
[1F	2r	.	2a	.
.	2A	.	2a	.
=66	=66	=66	=66	=66
1F]	2A	[0B	1a	1cc
.	2A	.	.	.
1C	4c	.	2.g	1ee
.	4d	.	.	.
.	4e	.	.	.
.	4f	.	4f	.
=67	=67	=67	=67	=67
1E	1g	1B]	1e	2ee
.	.	.	.	2ee
2E	2g	[1A	2r	1gg
2E	4G	.	[2g	.
.	4A	.	.	.
=68	=68	=68	=68	=68
1G	4B	0A]	2g]	1dd
.	4c	.	.	.
.	2.d	.	2g	.
2.D	.	.	2f	2.ff
.	4e	.	.	.
.	[2f	.	[2a	.
4E	.	.	.	4ee
=69	=69	=69	=69	=69
2F	2f]	[0G	4a]	4cc
.	.	.	4g	4dd
2C	2e	.	2e	2ee
1D	1d	.	1f#	2a
.	.	.	.	[2dd
=70	=70	=70	=70	=70
1G	1B	1G_	[0g	2dd]
.	.	.	.	2dd
2.C	[1e	1G_	.	2cc
.	.	.	.	[2ee
4D	.	.	.	.
=71	=71	=71	=71	=71
1E	0e]	0G]	1g_	4ee]
.	.	.	.	4dd
.	.	.	.	2b
1C	.	.	1g_	1cc
=72	=72	=72	=72	=72
0G	0d	0r	0g]	0b
=73	=73	=73	=73	=73
0r	0r	0r	0r	1g
.	.	.	.	1cc
=74	=74	=74	=74	=74
0r	0r	0r	0r	2cc
.	.	.	.	2b
.	.	.	.	2cc
.	.	.	.	2dd
=75	=75	=75	=75	=75
0r	0r	0r	1c	1ee
.	.	.	1g	1dd
=76	=76	=76	=76	=76
0r	0r	0r	2g	2.b
.	.	.	2e	.
.	.	.	.	4cc
.	.	.	2f	2dd
.	.	.	2g	[2ee
=77	=77	=77	=77	=77
0r	1r	0r	1a	2ee]
.	.	.	.	4dd
.	.	.	.	4cc
.	1G	.	2.g	4b
.	.	.	.	4a
.	.	.	.	2b
.	.	.	4f	.
=78	=78	=78	=78	=78
0r	1c	0r	4e	2.cc
.	.	.	4d	.
.	.	.	4c	.
.	.	.	4d	8b
.	.	.	.	8a
.	2c	.	4e	1g
.	.	.	4f	.
.	2B	.	[2g	.
=79	=79	=79	=79	=79
1r	2c	0r	2g]	2.a
.	2d	.	2f#	.
.	.	.	.	4b
1C	[1e	.	[1g	1cc
=80	=80	=80	=80	=80
1G	2e]	0r	0g]	1b
.	4d	.	.	.
.	4c	.	.	.
2G	2d	.	.	2r
2E	2e	.	.	[2cc
=81	=81	=81	=81	=81
2F	1d	[0g	2r	2cc]
2G	.	.	1g	2b
1A	2r	.	.	2.cc
.	[2c	.	2f	.
.	.	.	.	4dd
=82	=82	=82	=82	=82
1G	2c]	0g]	2e	4ee
.	.	.	.	4ff
.	2B	.	2d	2.gg
2r	2.c	.	1e	.
.	.	.	.	4ff
[2C	.	.	.	[2ee
.	4d	.	.	.
=83	=83	=83	=83	=83
2C]	4e	0g	2c	2ee]
.	4f	.	.	.
2BB	2g	.	2d	2dd
4C	1e	.	2c	2ee
4D	.	.	.	.
4E	.	.	4B	[2gg
4F	.	.	4A	.
=84	=84	=84	=84	=84
2G	1d	[0f#	4B	4gg]
.	.	.	4c	4ff
2G	.	.	1d	2dd
1E	1G	.	.	1ee
.	.	.	2c#	.
=85	=85	=85	=85	=85
[0D	0A	0f#]	1.d	1a
.	.	.	.	[1dd
.	.	.	2c	.
=86	=86	=86	=86	=86
1D_	1.d	0f#	2B	2dd]
.	.	.	2A	2cc
1D_	.	.	[1d	2b
.	2c	.	.	2a
=87	=87	=87	=87	=87
0D]	2B	[0g	1d]	1dd
.	4A	.	.	.
.	4G	.	.	.
.	2A	.	2r	1dd
.	2A	.	[2d	.
=88	=88	=88	=88	=88
0r	2B	1g_	2d]	2r
.	1c	.	1e	2g
.	.	1g_	.	1cc
.	4B	.	4d	.
.	4A	.	4c	.
=89	=89	=89	=89	=89
0r	2G	0g]	1d	2cc
.	2G	.	.	2b
.	2c	.	2e	2cc
.	2B	.	2d	2dd
=90	=90	=90	=90	=90
0r	2.c	[0d	0r	2.ee
.	4d	.	.	4dd
.	4e	.	.	2cc
.	4f	.	.	.
.	[2g	.	.	2b
=91	=91	=91	=91	=91
1D	2g]	1d_	2r	2a
.	2f#	.	2A	2.dd
1G	2g	1d_	1B	.
.	.	.	.	4cc
.	4G	.	.	[2b
.	4A	.	.	.
=92	=92	=92	=92	=92
2G	4B	0d]	2G	2b]
.	4c	.	.	.
2F#	2d	.	2A	2.a
1G	2B	.	2.B	.
.	.	.	.	4g
.	2G	.	.	[2g
.	.	.	4c	.
=93	=93	=93	=93	=93
1D	1A	[0g	2d	2g]
.	.	.	2A	2f#
2.G	1r	.	1B	2g
.	.	.	.	2dd
4F	.	.	.	.
=94	=94	=94	=94	=94
4E	1G	0g]	2B	1ee
4D	.	.	.	.
2E	.	.	1e	.
4C	1c	.	.	1ee
4D	.	.	.	.
4E	.	.	[2g	.
4F	.	.	.	.
=95	=95	=95	=95	=95
1G	2c	0g	2g]	1dd
.	2B	.	2d	.
[1C	2c	.	2e	2.gg
.	2d	.	2d	.
.	.	.	.	4ff
=96	=96	=96	=96	=96
0C]	2.e	[0f#	2.c	2ee
.	.	.	.	2ee
.	4d	.	4d	.
.	2c	.	1e	1ee
.	2B	.	.	.
=97	=97	=97	=97	=97
0D	2A	0f#]	2r	1dd
.	1d	.	1a	.
.	.	.	.	2r
.	2d	.	2a	[2dd
=98	=98	=98	=98	=98
1r	1.d	0f#	1a	2dd]
.	.	.	.	2dd
[1D	.	.	[1d	[1dd
.	4c	.	.	.
.	4B	.	.	.
=99	=99	=99	=99	=99
1D]	0A	[0g	2d]	2dd]
.	.	.	2d	4cc
.	.	.	.	4b
1D	.	.	1d	1a
=100	=100	=100	=100	=100
1G	2r	0g]	2r	1b
.	2G	.	2d	.
1r	2G	.	2d	2b
.	[2c	.	[2e	[2cc
=101	=101	=101	=101	=101
0r	2c]	0g	2e]	2cc]
.	2B	.	2d	2dd
.	2c	.	2c	2ee
.	2B	.	2d	[2dd
=102	=102	=102	=102	=102
0r	1c	[0d	1e	2dd]
.	.	.	.	2.cc
.	1G	.	2d	.
.	.	.	.	8b
.	.	.	.	8a
.	.	.	[2g	2b
=103	=103	=103	=103	=103
2r	2r	0d]	2g]	1a
2D	2A	.	4f#	.
.	.	.	4e	.
2D	2A	.	2f#	[1dd
[2G	[2B	.	2g	.
=104	=104	=104	=104	=104
2G]	2B]	0d	2g	2dd]
2F#	2A	.	2a	2dd
2G	2B	.	2g	2dd
2F#	2A	.	[2a	2dd
=105	=105	=105	=105	=105
1G	1B	0r	4a]	2b
.	.	.	4g	.
.	.	.	1g	2g
1D	1A	.	.	1a
.	.	.	2f#	.
=106	=106	=106	=106	=106
1r	1G	0r	[0g	0b
1G	2r	.	.	.
.	2d	.	.	.
=107	=107	=107	=107	=107
1c	1e	0r	1g]	0r
2B	2d	.	1r	.
2A	2f	.	.	.
=108	=108	=108	=108	=108
2.c	2.e	0r	0r	0r
4B	4d	.	.	.
2A	2c	.	.	.
2G	[2d	.	.	.
=109	=109	=109	=109	=109
2F	4d]	0r	0r	1r
.	4c	.	.	.
2E	1c	.	.	.
2F	.	.	.	1dd
2G	2B	.	.	.
=110	=110	=110	=110	=110
0C	0c	0r	1g	0ee
.	.	.	1cc	.
=111	=111	=111	=111	=111
0r	0r	0r	2b	2dd
.	.	.	2a	2ff
.	.	.	2.cc	2.ee
.	.	.	4b	4dd
=112	=112	=112	=112	=112
0r	0r	0r	2a	2cc
.	.	.	2g	2.dd
.	.	.	2f	.
.	.	.	.	4cc
.	.	.	2e	[2cc
=113	=113	=113	=113	=113
1G	1d	0r	0g	2cc]
.	.	.	.	2b
1c	1e	.	.	1cc
=114	=114	=114	=114	=114
2B	2d	0r	2r	1r
2A	2f	.	1a	.
2.c	2.e	.	.	2r
.	.	.	2g	[2cc
4B	4d	.	.	.
=115	=115	=115	=115	=115
2A	2c	0r	2f	2cc]
2G	2.d	.	2g	2b
2F	.	.	2a	2cc
.	4c	.	.	.
2E	[2c	.	2g	2cc
=116	=116	=116	=116	=116
1D	2c]	0r	1f	1dd
.	2B	.	.	.
1C	2c	.	2e	1g
.	[2e	.	[2g	.
=117	=117	=117	=117	=117
1.G	2e]	0r	2g]	1.b
.	4d	.	2g	.
.	4c	.	.	.
.	1d	.	[1g	.
2G	.	.	.	2b
=118	=118	=118	=118	=118
1G	1d	[0g	2g]	1b
.	.	.	4f	.
.	.	.	4e	.
1G	1B	.	1d	1dd
=119	=119	=119	=119	=119
1c	0r	1g_	0r	1ee
2B	.	1g_	.	2dd
[2c	.	.	.	[2ee
=120	=120	=120	=120	=120
2c]	1r	0g]	0r	2ee]
4B	.	.	.	4dd
4A	.	.	.	4cc
1B	1d	.	.	1dd
=121	=121	=121	=121	=121
0A	1f	[0a	1r	4cc
.	.	.	.	4b
.	.	.	.	4a
.	.	.	.	4b
.	2e	.	2r	4cc
.	.	.	.	4dd
.	2A	.	2e	4ee
.	.	.	.	4cc
=122	=122	=122	=122	=122
0r	1d	1a_	1f	1dd
.	2c#	1a_	2e	1r
.	[2d	.	[2f	.
=123	=123	=123	=123	=123
0r	2d]	0a]	2f]	1r
.	4c#	.	4e	.
.	4B	.	4d	.
.	2c#	.	2e	2r
.	2d	.	2f#	2a
=124	=124	=124	=124	=124
1r	1G	[0g	2g	0b
.	.	.	2d	.
1G	2r	.	2e	.
.	2d	.	2d	.
=125	=125	=125	=125	=125
1c	1e	1g_	0r	1cc
2B	2d	1g_	.	2r
2c	2e	.	.	[2cc
=126	=126	=126	=126	=126
2c	2e	0g]	2r	2cc]
4B	4d	.	2G	1dd
4A	4c	.	.	.
2B	2d	.	2g	.
2c	2e	.	2g	2cc
=127	=127	=127	=127	=127
1F	1f	[0f	1a	0cc
[1F	[1c	.	[1a	.
=128	=128	=128	=128	=128
1F]	1c]	1f_	1a]	1.ff
1D	1d	1f_	1a	.
.	.	.	.	2ff
=129	=129	=129	=129	=129
0F	1c	0f]	0a	2.ff
.	.	.	.	8ee
.	.	.	.	8dd
.	2.A	.	.	2cc
.	.	.	.	2dd
.	4B	.	.	.
=130	=130	=130	=130	=130
1C	0c	[0e	0g	0ee
[1c	.	.	.	.
=131	=131	=131	=131	=131
1c]	1g	1e_	1.cc	2r
.	.	.	.	1ee
1A	1a	1e_	.	.
.	.	.	2cc	2ee
=132	=132	=132	=132	=132
0c	0g	0e]	0cc	2.ee
.	.	.	.	4dd
.	.	.	.	1cc
=133	=133	=133	=133	=133
1G	1e	[0d	2b	2dd
.	.	.	2g	2b
1r	1r	.	2f#	2a
.	.	.	2f#	2a
=134	=134	=134	=134	=134
1G	2r	0d]	2g	2.b
.	2B	.	2g	.
.	.	.	.	4cc
2F#	2A	.	1a	1dd
2F#	2A	.	.	.
=135	=135	=135	=135	=135
2G	2B	0d	2r	2r
2G	2G	.	2g	2b
1D	2A	.	2f#	2a
.	2d	.	2f#	2a
=136	=136	=136	=136	=136
1G	2B	1r	2.g	4b
.	.	.	.	4cc
.	2B	.	.	2.dd
.	.	.	4f	.
1r	2c	[1g	2e	.
.	.	.	.	4cc
.	2c	.	4d	[2cc
.	.	.	4c	.
=137	=137	=137	=137	=137
1r	2G	0g]	2d	2cc]
.	2G	.	2d	2b
1C	[1c	.	1e	1cc
=138	=138	=138	=138	=138
1.F	2c]	[0a	1f	2r
.	2c	.	.	2cc
.	1c	.	2r	1ff
2F	.	.	2a	.
=139	=139	=139	=139	=139
1F	1A	1a]	1cc	2ff
.	.	.	.	2ff
2.C	2.c	[1g	2cc	[1ee
.	.	.	2cc	.
4D	4B	.	.	.
=140	=140	=140	=140	=140
2E	2G	0g]	0b	1ee]
2F	2A	.	.	.
1G	2B	.	.	[1dd
.	2c	.	.	.
=141	=141	=141	=141	=141
1.D	2d	[0f	2.a	1dd]
.	2e	.	.	.
.	.	.	4g	.
.	2f	.	2f	[1a
2E	2g	.	4e	.
.	.	.	4d	.
=142	=142	=142	=142	=142
2F	0a	1f]	1c	2a]
2G	.	.	.	2b
2A	.	[1e	[1c	2cc
2B	.	.	.	2dd
=143	=143	=143	=143	=143
1c	2.g	0e]	2c]	2ee
.	.	.	2d	2ff
.	4f	.	.	.
1C	2e	.	2e	[1gg
.	4d	.	2f	.
.	4c	.	.	.
=144	=144	=144	=144	=144
0G	2B	[0d	2g	2gg]
.	2c	.	2a	4ff
.	.	.	.	4ee
.	2d	.	2b	[1dd
.	2B	.	[2g	.
=145	=145	=145	=145	=145
0D	0A	0d]	2g]	1dd]
.	.	.	4f#	.
.	.	.	4e	.
.	.	.	1f#	1dd
=146	=146	=146	=146	=146
[0G	[0G	[0d	[0g	[0b
=147	=147	=147	=147	=147
0G]	0G]	0d]	0g]	0b]
==	==	==	==	==
*-	*-	*-	*-	*-
!!!CDT: 1525/^1526/-1594/2/2
!!!OCY: Italia
!!!AGN: Mass (Tenor)
!!!AST: renaissance, vocal
!!!ASW: Popular Song
!!!PWK: Masses, Book 3
!!!RNB: Cadence finals: C,D
!!!YOR: Le Opere Complete, v. 6, p. 97
!!!YOO: Rome, Italy: Fratelli Scalera
!!!END: 1992//
!!!EED: John Miller
!!!YEC: Copyright 2000, John Miller
!!!YEN: United States of America
!!!YEM: Rights to all derivative electronic formats reserved.
!!!YEM: Refer to licensing agreement for further details.
!!!YEM: This file must be accompanied by the licensing agreement.
!!!YEM: A copy of the licensing agreement may be found at http://www.music-cog.ohio-state.edu/HumdrumDatabases/Palestrina/license.txt
!!!EMD: converted to Humdrum by Bret Aarden
